!!!!SEGMENT: pl-kk--kk-i-6--036-004_anonim--missa-in-defectu-sanctus.krn
!!!cenid: 16xx:1014
!!!COM: Anonim
!!!COM-rismid: pe30004985
!!!CDT:
!!!CNT:
!!!OPR: Missa in defectu
!!!OTL: Sanctus
!!!OMV: 004
!!!PDT:
!!!AGN: Sacred; Mass
!!!SMS-siglum: PL-Kk
!!!SMS-shelfmark: Kk.I.6
!!!SMS-shelfwork: 036-004 M
!!!SMS-variant:
!!!SMS-altvar:
!!!NIFC-rismid: 1001136224
!!!URL-scan: http://repozytorium.nifc.pl/skany/pl-kk-nut--i-6
!!!ONB-nifc: UWAGA: C (brak), T (skan 0154-0158, s. 112-120), B (skan 0264-0268, s. 110-119) Części Mszy; 1. Kyrie, 2. Et in terra, 3. Patrem, 4. Sanctus, 5. Agnus Dei
!!!key:
**kern	**text	**kern	**text	**kern
*part3	*part3	*part2	*part2	*part1
*staff3	*staff3	*staff2	*staff2	*staff1
*Iempty	*	*Itenor	*	*Ivox
*I"Baſsus.	*	*I"Tenor.	*	*I"Cantus.
*I'B	*	*I'T	*	*I'S
*clefF4	*	*clefC4	*	*clefC4
*k[]	*	*k[]	*	*k[]
*a:	*	*a:	*	*a:
*M2/1	*	*M2/1	*	*M2/1
*met(C|)	*	*met(C|)	*	*
=1-	=1-	=1-	=1-	=1-
!	!	!LO:TX:t=P:problem:all\right:global	!	!
*	*	*2\right	*	*met(C|)
1r	.	2e\	San-	0ryy
.	.	2.A/	.	.
1A\	San-	.	.	.
.	.	4B\	.	.
.	.	2.c\	.	.
=2-	=2-	=2-	=2-	=2-
2.AA/	.	.	.	0ryy
.	.	4d\	.	.
.	.	4e\	.	.
4BB/	.	4d\	.	.
2C/	.	4c\	.	.
.	.	4B\	.	.
2D/	.	2.A/	.	.
=3-	=3-	=3-	=3-	=3-
1BB/	.	.	.	0ryy
.	.	8G/L	.	.
!	!	!LO:TX:t=P:problem:♯ below	!	!
.	.	8F#X/J	.	.
!	!	!LO:TX:t=P:problem:♯ below	!	!
.	.	2G#X/	.	.
2.AA/	.	2A/	.	.
.	.	2.E/	.	.
4BB/	.	.	.	.
=4-	=4-	=4-	=4-	=4-
2.C/	.	.	.	0ryy
.	.	4F/	.	.
.	.	1G/	.	.
4D/	.	.	.	.
*2\right	*	*	*	*
2E\	.	.	.	.
2F\	.	2A/	.	.
=5-	=5-	=5-	=5-	=5-
!LO:SIC:v:t=custos C	!	!	!	!
1D\	.	1F/	.	0ryy
!LO:LB:g=original	!	!	!	!
4C/	.	2E/	-ctus	.
4D/	.	.	.	.
4E/	.	2e\	San-	.
4C/	.	.	.	.
=6-	=6-	=6-	=6-	=6-
4F\	.	2.A/	.	0ryy
4E\	.	.	.	.
4F\	.	.	.	.
4G\	.	4B\	.	.
2A\	.	2c\	.	.
2F\	.	2d\	.	.
=7-	=7-	=7-	=7-	=7-
1E\	.	1B\	.	0ryy
1AA/	-ctus	1c#X\	-ct(us)	.
=8-	=8-	=8-	=8-	=8-
!	!	!LO:SIC:v:t=custos e	!	!
2r	.	0r	.	0ryy
2.A\	Do-	.	.	.
4A\	-mi-	.	.	.
2A\	-n(us	.	.	.
!	!	!LO:PB:g=original	!	!
=9-	=9-	=9-	=9-	=9-
2.E\	DE-	2r	.	0ryy
.	.	2.e\	Do-	.
!LO:TX:t=P:problem:♯ above	!	!	!	!
4F#X\	.	.	.	.
!LO:TX:t=P:problem:♯ above	!	!	!	!
2G#X\	-(us)	.	.	.
.	.	4e\	-mi-	.
2A\	.	2e\	-n(us)	.
=10-	=10-	=10-	=10-	=10-
1F\	Sa-	4A/	.	0ryy
.	.	4B\	.	.
.	.	4c\	.	.
.	.	4d\	.	.
2.G\	.	8B/	DE-	.
.	.	8G/	(us)	.
.	.	2c\	Sa-	.
4G\	-ba-	4B\	-ba-	.
=11-	=11-	=11-	=11-	=11-
2C/	-oth	4c\	-oth	0ryy
.	.	4c\	Ple-	.
2G\	Ple-	4B\	-ni	.
.	.	4G/	su(n)t	.
4F\	-ni	8A/L	cae-	.
.	.	8G/	.	.
4D/	su(n)t	8A/	.	.
.	.	8B/J	.	.
8E\L	Cae-	2c\	-li	.
8D\	.	.	.	.
8E\	.	.	.	.
!LO:SIC:v:t=custos G	!	!	!	!
8F\J	.	.	.	.
!LO:LB:g=original	!	!	!	!
=12-	=12-	=12-	=12-	=12-
2G\	-li	4B/	&	0ryy
.	.	4G/	.	.
4F\	&	2d\	ter-	.
4D/	.	.	.	.
8A\L	ter-	2c\	.	.
8E\J	.	.	.	.
2A\	.	.	.	.
.	.	2B\	.	.
4G#X\	-ra	.	.	.
=13-	=13-	=13-	=13-	=13-
*	*ij	*	*	*
4A\	Ple-	2A/	-ra	0ryy
4A\	-ni	.	.	.
4G\	sunt	2r	.	.
4E\	.	.	.	.
*	*	*	*ij	*
8F\L	Cae-	2d\	Do-	.
8E\	.	.	.	.
8F\	.	.	.	.
8G\J	.	.	.	.
2A\	-li	4c\	-mi-	.
.	.	4A/	-n(us)	.
=14-	=14-	=14-	=14-	=14-
2G\	et	8B\L	De-	0ryy
.	.	8A\	.	.
.	.	8B\	.	.
!	!	!LO:SIC:v:t=custos d	!	!
.	.	8c\J	.	.
!	!	!LO:LB:g=original	!	!
2F\	ter-	8d\L	-us	.
.	.	8A\J	.	.
.	.	2d\	Sa-	.
2E\	-ra	.	.	.
!	!	!LO:TX:t=P:problem:♯ above	!	!
.	.	4c#X\	-ba-	.
4D/	Ple-	2d\	-oth	.
4D/	-ni	.	.	.
=15-	=15-	=15-	=15-	=15-
4C/	sunt	4r	.	0ryy
4AA/	.	4A/	Do-	.
8BB/L	Cae-	4.G/	-mi-	.
8AA/	.	.	.	.
8BB/	.	.	.	.
8C/J	.	8E/	-nus	.
2D/	.	8F/L	De-	.
.	.	8E/	.	.
.	.	8F/	.	.
.	.	8G/J	.	.
2AA/	li	2A/	-us	.
=16-	=16-	=16-	=16-	=16-
4r	.	4G/	Sa-	0ryy
4E\	Ple-	4g\	-ba-	.
!	!	!LO:TX:t=P:problem:♯ below	!	!
4D/	-ni	4f#X\	.	.
!LO:SIC:v:t=custos C	!	!	!	!
4BB/	sunt	4d\	.	.
!LO:LB:g=original	!	!	!	!
8C/L	Cae-	1e\	-oth	.
8BB/	.	.	.	.
8C/	.	.	.	.
8D/J	.	.	.	.
2E\	-li	.	.	.
=17-	=17-	=17-	=17-	=17-
2D/	Ple-	4f\	Sa-	0ryy
.	.	4f\	-ba-	.
2C/	-ni	4e\	.	.
.	.	4c\	oth	.
*	*	*	*Xij	*
4.BB/	sunt	8d\L	.	.
.	.	8c\	.	.
.	.	8d\	.	.
8C/	.	8e\J	.	.
8D\L	Cae-	2f\	Et	.
8E\	.	.	.	.
8F\	.	.	.	.
8G\J	.	.	.	.
=18-	=18-	=18-	=18-	=18-
4A\	-li	8e\	tera-	0ryy
.	.	8A\	-ra	.
4F\	et	2d\	glo-	.
4G\	ter-	.	.	.
!	!	!LO:TX:t=P:problem:♯ above	!	!
4A\	.	4c#X\	.	.
2D/	-ra	4d\	.	.
*	*Xij	*	*	*
.	.	4.d\	.	.
4.G\	Glo-	.	.	.
.	.	8c#\	ri-	.
!	!	!LO:SIC:v:t=custos c	!	!
.	.	4B\	-a	.
8F\	-ri-	.	.	.
!	!	!LO:LB:g=original	!	!
=19-	=19-	=19-	=19-	=19-
2E\	-a	4r	.	0ryy
.	.	4.c\	gl(o-	.
*	*ij	*	*	*
4.F\	Glo-	.	.	.
.	.	8B\	.	.
.	.	4A/	ri-	.
8E\	-ri-	.	.	.
2D\	-a	8B/L	-a/	.
*	*Xij	*	*	*
.	.	8A/J	.	.
.	.	2A/	Tu-	.
2E\	Tu-	.	.	.
!	!	!LO:TX:t=P:problem:♯ below	!	!
.	.	4G#X/	.	.
=20-	=20-	=20-	=20-	=20-
2AA/	-a	2A/	-a	0ryy
2A\	Ho-	2r	.	.
8E\L	-san-	1r	.	.
8F\	.	.	.	.
8G\	.	.	.	.
8A\J	.	.	.	.
4F\	.	.	.	.
!LO:SIC:v:t=custos E	!	!	!	!
4F\	-na	.	.	.
!LO:LB:g=original	!	!	!	!
=21-	=21-	=21-	=21-	=21-
8E\	in	4r	.	0ryy
8AA/	ex-	.	.	.
2A\	-cel-	4e\	Ho-	.
.	.	8B\L	-san-	.
.	.	8c\	.	.
!LO:TX:t=P:problem:♯ above	!	!	!	!
4G#X\	.	8d\	.	.
.	.	8e\J	.	.
2A\	-ſis	4c\	.	.
.	.	4c\	-na	.
2E\	Ho-	8B\	in	.
.	.	8E/	ex-	.
.	.	2e\	-cel-	.
=22-	=22-	=22-	=22-	=22-
8BB/L	-san-	.	.	0ryy
8C/	.	.	.	.
8D/	.	4d\	.	.
8E/J	.	.	.	.
4C/	.	2e\	-ſis	.
4C/	-na	.	.	.
8BB/	in	2r	.	.
8BB/	ex-	.	.	.
2E\	-cel-	.	.	.
*	*	*	*ij	*
.	.	2B\	Ho-	.
4D/	.	.	.	.
=23-	=23-	=23-	=23-	=23-
2.C/	.	8E/L	-san-	0ryy
.	.	8F/	.	.
.	.	8G/	.	.
.	.	8A/J	.	.
.	.	4F/	.	.
4BB/	.	4F/	-na	.
2C/	-ſis	8E/	in	.
.	.	8C/	ex-	.
.	.	2c\	-cel-	.
*	*ij	*	*	*
2G\	Ho-	.	.	.
.	.	8B\L	.	.
!	!	!LO:SIC:v:t=custos d	!	!
.	.	8c\J	.	.
!	!	!LO:LB:g=original	!	!
=24-	=24-	=24-	=24-	=24-
8D\L	-san-	2.d\	.	0ryy
8E\	.	.	.	.
8F\	.	.	.	.
8G\J	.	.	.	.
4A\	.	.	.	.
4A\	-na	4c\	.	.
8G\	in	2B\	.	.
8D/	ex-	.	.	.
2G\	-cel-	.	.	.
.	.	2A/	.	.
!LO:TX:t=P:problem:♯ above	!	!	!	!
4F#X\	.	.	.	.
=25-	=25-	=25-	=25-	=25-
2G\	ſis	2G/	-ſis	0ryy
*	*	*	*Xij	*
!LO:SIC:v:t=custos E	!	!	!	!
2F\	Ho-	2r	.	.
!LO:LB:g=original	!	!	!	!
4.E\	-san-	8G/	in	.
.	.	8E/	ex-	.
.	.	2e\	-cel-	.
8F\	.	.	.	.
4G\	.	.	.	.
4G\	na	2d\	.	.
=26-	=26-	=26-	=26-	=26-
8E\	in	.	.	0ryy
8AA/	ex-	.	.	.
2A\	-cel-	4c\	.	.
.	.	2B\	-ſis	.
!LO:TX:t=P:problem:♯ above	!	!	!	!
4G#X\	.	.	.	.
8A\L	.	2A/	/in	.
8Gny\	.	.	.	.
8F\	.	.	.	.
8E\J	.	.	.	.
4D/	.	4f\	ex-	.
4C#X/	.	2e\	-cel-	.
=27-	=27-	=27-	=27-	=27-
1D\	.	.	.	0ryy
.	.	8d\L	.	.
.	.	8c\J	.	.
.	.	2d\	.	.
!LO:SIC:v:t=custos A	!	!	!	!
1AA/;	-ſis	1c#X\;<	-ſis/	.
*	*Xij	*	*	*
!LO:PB:g=original	!	!LO:LB:g=original	!	!
=28||-	=28||-	=28||-	=28||-	=28||-
*M2/1	*	*M2/1	*	*M2/1
*met(C|)	*	*met(C|)	*	*met(C|)
1.A\	Be-	00r	.	0ryy
2E\	-ne-	.	.	.
=29-	=29-	=29-	=29-	=29-
1G\	-di-	.	.	0ryy
2D\	-ct(us)	.	.	.
2E\	qui	.	.	.
=30-	=30-	=30-	=30-	=30-
1F\	ve-	00r	.	0ryy
2E\	.	.	.	.
2E\	-nit	.	.	.
=31-	=31-	=31-	=31-	=31-
4C/	qui	.	.	0ryy
8D/L	.	.	.	.
8E/J	.	.	.	.
1F\	ve-	.	.	.
4E\	.	.	.	.
4D\	.	.	.	.
=32-	=32-	=32-	=32-	=32-
2E\	.	00r	.	0ryy
!LO:TX:t=P:problem:♯ above	!	!	!	!
2F#X\	.	.	.	.
4G\	.	.	.	.
4F#\	.	.	.	.
4E\	.	.	.	.
4D/	.	.	.	.
=33-	=33-	=33-	=33-	=33-
2.E\	.	.	.	0ryy
4D/	.	.	.	.
4E\	.	.	.	.
4F\	.	.	.	.
1G\	.	.	.	.
=34-	=34-	=34-	=34-	=34-
.	.	1.e\	Be-	0ryy
2E\	.	.	.	.
4A\	.	.	.	.
8E\L	.	.	.	.
!LO:SIC:v:t=custos G	!	!	!	!
8F\J	.	.	.	.
!LO:LB:g=original	!	!	!	!
1G\	.	2B\	-ne-	.
=35-	=35-	=35-	=35-	=35-
.	.	1d\	-di-	0ryy
!LO:TX:t=P:problem:♯ above	!	!	!	!
4F#X\	.	.	.	.
4E\	.	.	.	.
4F#\	.	2A/	-ct(us)	.
4D/	.	.	.	.
4C/	.	2B\	qui	.
4BB/	.	.	.	.
=36-	=36-	=36-	=36-	=36-
4AA/	.	1c\	ve-	0ryy
4BB/	.	.	.	.
4C/	.	.	.	.
4D/	.	.	.	.
1E\	nit	2B\	-nit	.
.	.	2B\	qui	.
=37-	=37-	=37-	=37-	=37-
2E\	qui	4G/	ve-	0ryy
.	.	8A/L	.	.
.	.	8B/J	.	.
4C/	ve-	1c\	.	.
8D/L	.	.	.	.
8E/J	.	.	.	.
1F\	.	.	.	.
.	.	4B/	.	.
.	.	4A/	.	.
=38-	=38-	=38-	=38-	=38-
0G\	.	2B\	.	0ryy
.	.	2.c\	.	.
.	.	8B\L	.	.
.	.	8A\J	.	.
.	.	2B\	.	.
=39-	=39-	=39-	=39-	=39-
2C/	-nit	4c\	nit	0ryy
.	.	4G/	in	.
2C/	in	2.d\	No-	.
2.F\	no-	.	.	.
.	.	4c\	.	.
.	.	1A\	-mi-	.
4F\	-mi-	.	.	.
=40-	=40-	=40-	=40-	=40-
1D\	-ne	.	.	0ryy
.	.	4B/	-ne	.
!	!	!LO:SIC:v:t=custos G	!	!
.	.	4A/	Do-	.
!	!	!LO:LB:g=original	!	!
1.E\	Do-	2G#X/	.	.
.	.	1A\	.	.
=41-	=41-	=41-	=41-	=41-
.	.	.	.	0ryy
2E\	-mi-	2G#X/	-mi-	.
1AA/	-ni	1A\	-ni	.
=42-	=42-	=42-	=42-	=42-
*M3/1	*	*M3/1	*	*M3/1
1E\	Ho-	1G#X/	Ho-	1%3ryy
1A\	-ſan-	1A\	-san-	.
!LO:SIC:v:t=custos C	!	!	!	!
1G\	-na	1B\	.	.
!LO:LB:g=original	!	!	!	!
=43-	=43-	=43-	=43-	=43-
0.C/	in	0.c\	-na	1%3ryy
=44-	=44-	=44-	=44-	=44-
1GG/	ex-	1B\	in	1%3ryy
0AA/	-cel-	0A\	ex-	.
=45-	=45-	=45-	=45-	=45-
0.E\	-ſis	0.G#X/	-cel-	1%3ryy
=46-	=46-	=46-	=46-	=46-
!	!	!LO:TX:t=P:problem:♯ below	!	!
*	*ij	*	*	*
1E\	in	1G#X/	-ſis	1%3ryy
*	*	*	*ij	*
1A\	ex-	1A\	in	.
1G\	-cel-	1B\	ex-	.
=47-	=47-	=47-	=47-	=47-
0.C/	.	0.c\	-cel-	1%3ryy
=48-	=48-	=48-	=48-	=48-
1GG/	.	1B\	.	1%3ryy
*col	*	*col	*	*
0AA/	.	0A\	.	.
=49-	=49-	=49-	=49-	=49-
*M2/1	*	*M2/1	*	*M2/1
*met(C|)	*	*	*	*
*Xcol	*	*met(C|)	*	*
*	*	*Xcol	*	*met(C|)
0E\;	-ſis	0G#X/;	-ſis	0ryy
==	==	==	==	==
*-	*-	*-	*-	*-
!!!system-decoration: [(s1,s2,s3)]
!!!EED: Leszek Kubiak
!!!EST: 2021-03-23
!!!AIN: 1 empty 1 tenor 1 vox
!!!ENC: Krzysztof Stępień
!!!END: 2021-03-08
